X: 7609
T: Coil The Hawser
R: reel
M: 4/4
K: Adorian
D|:EAAG G2 GA|BG G2 cBAG|EGGF G2 GA|BcdB cBAG|
EA A2 AEAc|BGBd e2 ef|gfge dBGA|1 BAGB A2 AG:|2 BAGB A2 Bd||
|:eaag a2 ga|ba a2 bgag|edef g2gf|gaba gedg|
eaag a2 ga|baag e2ef|gfge dBGA|BAGB A2 Bd:|

